X:1
T:He Saves Me (Van DeVenter)
T:He Saves Me (Van DeVenter)
T:Winfield Scott Weeden
T:Judson Wheeler Van DeVenter, 1895
T:Public Domain Courtesy of the Cyber Hymnal™
T:Public Domain Courtesy of the Cyber Hymnal™
C:Winfield Scott Weeden
Z:Public Domain
Z:Courtesy of the Cyber Hymnal™
%%score ( 1 2 ) ( 3 4 )
L:1/8
Q:1/4=93
M:6/8
K:G
V:1 treble 
V:2 treble 
V:3 bass 
V:4 bass 
V:1
 D | D[DG][GA] [GB][GB][GB] | [GB]3 [DG]2 D | D[DF][FA] [Fc][Fc][Fc] | [Fc]3 [FA]2 D | %5
w: 1.~The|dear lov- ing Sav- ior hath|found me, And|shat- tered the fet- ters that|bound me, Tho’|
w: 2.~He|sought me so long ere I|knew Him, But|fin- al- ly win- ning me|to Him, I|
w: 3.~I|nev- er, no, nev- er will|leave Him! Grow|wea- ry of ser- vice and|grieve Him, I’ll|
 D[DG][DB] [Gd][Gd][Gd] | d3 [Dc]2 [DB] | [EA][EA][GA] [GA][GB][GA] | ([F-A]3 [Fd]2) D | %9
w: all was con- fu- sion a-|round me, He|came and spoke peace to my|soul. * The|
w: yield- ed my all to pur-|sue Him, And|asked to be filled with His|grace. * Al-|
w: con- stant- ly trust and be-|lieve Him, Re-|main in His pre- sence di-|vine. * A-|
 D[DG][GA] [GB][GB][GB] | [GB]3 [DG]2 D | D[DF][FA] [Fc][Fc][Fc] | [Fc]3 [FA]2 D | %13
w: bless- èd Re- deem- er that|bought me, In|ten- der- ness con- stant- ly|sought me, The|
w: though a vile sin- ner be-|fore Him, Thro’|faith I was led to im-|plore Him, And|
w: bid- ing in love ev- er|flow- ing, In|know- ledge and grace ev- er|grow- ing, Con-|
 D[DG][DB] [Gd][Gd][Gd] | d3 [Dc]2 [DB] | [EA][EB][Ec] [GB][FB][FA] | [DG]3- [DG]2 || %17
w: way of sal- va- tion He|taught me, And|made my heart per- fect- ly|whole. *|
w: now I re- joice and a-|dore Him, Re-|stored to His lov- ing em-|brace. *|
w: fid- ing im- pli- cit- ly,|know- ing That|Je- sus the Sav- ior is|mine. *|
"^Refrain" [Gd] | [Gd]3 [GB]2 [Gd] | [Gd]3 [GB]2 D | DGB [Gd][Ge]>[Gd] | d3 [Fc]2 [Ac] | %22
w: |||||
w: He|saves me, He|saves me, His|love fills my soul, hal- le-|lu- jah! Oh,|
w: |||||
 [Ac]3 [FA]2 [Ac] | [Ac]3 [FA]2 D x | DFA [Ac][Bd]>[Ac] | [GB]3- [GB]2 [Gd] | [Gd]3 [GB]2 [Gd] | %27
w: |||||
w: glo- ry! oh,|glo- ry! His|Spir- it a- bid- eth with-|in; * He|saves me, He|
w: |||||
 [Gd]3 [GB]2 D | DGB [Gd][Ge]>[Gd] | d3 [Fc]2 [Ac] | [Ac]3 [FA]2 [Ac] | [Ac]3 [FA]2 D x | %32
w: |||||
w: saves me, His|love fills my soul, hal- le-|lu- jah! Oh,|glo- ry! oh,|glo- ry! His|
w: |||||
 DFA [Fc]"^riten."[FB][DA] | [DG]3- [DG]2 |] %34
w: ||
w: blood cleans- eth me from all|sin. *|
w: ||
V:2
 D | D x5 | x5 D | D x5 | x5 D | D x5 | (G2 D) x3 | x6 | x5 D | D x5 | x5 D | D x5 | x5 D | D x5 | %14
 (G2 D) x3 | x6 | x5 || x | x6 | x5 D | DGB x3 | (G2 D) x3 | x6 | x5 D x | DFA x3 | x6 | x6 | %27
 x5 D | DGB x3 | (G2 D) x3 | x6 | x5 D x | DFA x3 | x5 |] %34
V:3
 [G,B,] | [G,B,][G,B,][G,C] [G,D][G,D][G,D] | [G,D]3 [G,B,]2 [G,B,] | %3
 [D,F,][D,A,][D,C] [D,A,][D,A,][D,A,] | [D,A,]3 [D,C]2 [G,B,] | %5
 [G,B,][G,B,][G,D] [G,,B,][G,,B,][G,,B,] | [G,,B,]3 [A,,F,]2 [B,,G,] | %7
 [C,C][C,C][C,E] [^C,E][C,E][C,E] | ([D,-D]3 [D,A,]2) [G,B,] | [G,B,][G,B,][G,C] [G,D][G,D][G,D] | %10
 [G,D]3 [G,B,]2 [G,B,] | [D,F,][D,A,][D,C] [D,A,][D,A,][D,A,] | [D,A,]3 [D,C]2 [G,B,] | %13
 [G,B,][G,B,][G,D] [G,,B,][G,,B,][G,,B,] | [G,,B,]3 [G,,F,]2 [B,,G,] | %15
 [C,A,][B,,^G,][A,,A,] [D,=G,][D,D][D,C] | [G,B,]3- [G,B,]2 || [G,B,] | [G,B,]3 [G,D]2 D, | %19
 [G,B,]3 [G,D]2 D, | D,G,B, [G,B,][G,C]>[G,B,] | [D,B,]3 [D,A,]2 [D,D] | z [D,D]2 [D,D] x2 | %23
 z [D,D]2 D, x3 | D,F,A, [D,D][D,D]>[D,D] | [G,D]3- [G,D]2 [G,B,] | [G,B,]3 [G,D]2 [G,B,] | %27
 [G,B,]3 [G,B,]2 D, | D,G,B, [G,B,][G,C]>[G,B,] | [D,B,]3 [D,A,]2 [D,D] | z [D,D]2 [D,D] x2 | %31
 z [D,D]2 D, x3 | D,F,A, [D,E][D,D][D,C] | [G,,G,B,]3- [G,,G,B,]2 |] %34
V:4
 x | x6 | x6 | x6 | x6 | x6 | x6 | x6 | x6 | x6 | x6 | x6 | x6 | x6 | x6 | x6 | x5 || x | %18
 (G,,B,,D,) x D, x | (G,,B,,D,) x D, x | D,G,B, x3 | x6 | [D,D]3 (F,A,) x | ([D,D]3 F,A,) x D, | %24
 D,F,A, x3 | x6 | (G,,B,,D,) x3 | (G,,B,,D,) x D, x | D,G,B, x3 | x6 | ([D,D]3 F,A,) x | %31
 ([D,D]3 F,A,) x D, | D,F,A, x3 | x5 |] %34

